!!!!SEGMENT: pl-kk--kk-i-3--024_anonim--alleluia-in-die-resurrectionis.krn
!!!cenid: 15xx:632
!!!COM: Anonim
!!!COM-rismid: pe30004985
!!!CDT:
!!!CNT:
!!!OTL: Alleluia, In die resurrectionis
!!!PDT:
!!!AGN:
!!!SMS-siglum: PL-Kk
!!!SMS-shelfmark: Kk.I.3
!!!SMS-shelfwork: 024 W
!!!SMS-variant:
!!!SMS-altvar:
!!!NIFC-rismid: 1001145524
!!!URL-scan: http://repozytorium.nifc.pl/skany/pl-kk-nut--i-3
!!!ONB-nifc: UWAGA: Discantus (s. 90v-91v, skan 0093-0094), Tenor (s. 67v-68r, skan 0240), Bassus (s. 88v-89v, skan 0392-0393)
!!!key: G:mix
**kern	**text	**kern	**text	**kern	**text
*part3	*part3	*part2	*part2	*part1	*part1
*staff3	*staff3	*staff2	*staff2	*staff1	*staff1
*I"Bassus	*	*I"Tenor	*	*I"Discantus	*
*I'B	*	*I'T	*	*I'A	*
*Ibass	*	*Itenor	*	*Ialto	*
*ICvox	*	*ICvox	*	*ICvox	*
*clefF4	*	*clefC3	*	*clefC3	*
*k[]	*	*k[]	*	*k[]	*
*G:mix	*	*G:mix	*	*G:mix	*
=1-	=1-	=1-	=1-	=1-	=1-
1G	Al-	1G	Al-	1d	Al-
1G	-le-	1G	-le-	1d	-le-
=2-	=2-	=2-	=2-	=2-	=2-
*lig	*	*lig	*	*	*
1E	-lu-	1G	-lu	1e	-lu-
1D	.	1A	.	1f	.
*Xlig	*	*Xlig	*	*	*
=3-	=3-	=3-	=3-	=3-	=3-
*	*	*lig	*	*	*
1F	.	1F	.	1.c	.
*2\right	*	*	*	*	*
2F\	.	1A	.	.	.
2D/	.	.	.	2d/	.
*	*	*Xlig	*	*	*
=4-	=4-	=4-	=4-	=4-	=4-
*	*	*lig	*	*	*
1C	.	1c	.	1e	.
1G	.	1B	.	1d	.
*	*	*Xlig	*	*	*
=5-	=5-	=5-	=5-	=5-	=5-
*	*	*lig	*	*	*
*custos:F	*	*	*	*	*
1F	.	1A	.	1.a	.
!LO:LB:g=original	!	!	!	!	!
*clefF3	*	*	*	*	*
2F/	.	1c	.	.	.
*	*	*	*	*2\right	*
*	*	*	*	*custos:f	*
2E/	.	.	.	2g\	.
*	*	*Xlig	*	*	*
!	!	!	!	!LO:LB:g=original	!
=6-	=6-	=6-	=6-	=6-	=6-
2D/	.	0d	.	2f\	.
2G/	.	.	.	1g	.
1D	.	.	.	.	.
.	.	.	.	2f\	.
=7-	=7-	=7-	=7-	=7-	=7-
!LO:TX:b:t=[sc-below]	!	!LO:TX:a:t=[sc]	!	!LO:TX:b:t=[sc-below]	!
1G	-ia	1G	.	1g	-ia
*	*	*custos:A	*	*	*
1A	.	1F	.	1f	.
!	!	!LO:LB:g=original	!	!	!
=8-	=8-	=8-	=8-	=8-	=8-
1F	.	1A	.	2f\	.
.	.	.	.	1a	.
2F/	.	0c	.	.	.
2G/	.	.	.	1g\	.
=9-	=9-	=9-	=9-	=9-	=9-
1A	.	.	.	.	.
.	.	.	.	2f\	.
2G/	.	1B	.	1g	.
2E/	.	.	.	.	.
=10-	=10-	=10-	=10-	=10-	=10-
*	*	*lig	*	*	*
1F	.	1A	.	2c/	.
.	.	.	.	1f	.
1C	.	1G	.	.	.
.	.	.	.	2e/	.
*	*	*Xlig	*	*	*
=11-	=11-	=11-	=11-	=11-	=11-
0D	.	0F	.	0f	.
=12-	=12-	=12-	=12-	=12-	=12-
*custos:F	*	*	*	*custos:f	*
0BB-X	.	0B	.	0f	.
!LO:PB:g=original	!	!	!	!LO:PB:g=original	!
=13-	=13-	=13-	=13-	=13-	=13-
*	*	*lig	*	*	*
1F	.	1A	.	1f	.
2C/	.	1G	.	2e/	.
2E/	.	.	.	1g\	.
*	*	*Xlig	*	*	*
=14-	=14-	=14-	=14-	=14-	=14-
*	*	*lig	*	*	*
1D	.	1A	.	.	.
.	.	.	.	2f\	.
1G	.	1B	.	1g	.
*	*	*Xlig	*	*	*
=15-	=15-	=15-	=15-	=15-	=15-
2G/	.	0G;;	.	2g\	.
2C/	.	.	.	2e/	.
1C;l	.	.	.	1e;<l	.
=16||	=16||	=16||	=16||	=16||	=16||
*lig	*	*lig	*	*	*
1G	In	1G	In	1d	In
1D	.	1d	.	1.f	.
*Xlig	*	*Xlig	*	*	*
=17-	=17-	=17-	=17-	=17-	=17-
2D/	di-	1d	di-	.	.
2G/	.	.	.	2g\	di-
*	*	*custos:c	*	*	*
2F/	-e	1d	-e	2a\	-e
*	*	*	*	*custos:e	*
2G/	.	.	.	2g\	.
!	!	!LO:LB:g=original	!	!LO:LB:g=original	!
=18-	=18-	=18-	=18-	=18-	=18-
*custos:D	*	*	*	*	*
*	*	*lig	*	*	*
1A	.	1c	.	1e	.
!LO:LB:g=original	!	!	!	!	!
2D/	.	1A	.	2f\	.
1F\	.	.	.	1a\	.
*	*	*Xlig	*	*	*
=19-	=19-	=19-	=19-	=19-	=19-
.	.	1c	.	.	.
2E/	.	.	.	1g	.
*	*	*lig	*	*	*
1D	.	1d	.	.	.
.	.	.	.	2f\	.
=20-	=20-	=20-	=20-	=20-	=20-
1E	.	1G	.	1g	re-
*	*	*Xlig	*	*lig	*
1F	re-	1F	re-	1a	-ſurr-
=21-	=21-	=21-	=21-	=21-	=21-
*lig	*	*lig	*	*	*
1D	-ſvr-	1A	-ſur-	1f	.
*	*	*	*	*Xlig	*
1C	.	1c	.	1.g	.
*Xlig	*	*Xlig	*	*	*
=22-	=22-	=22-	=22-	=22-	=22-
*	*	*lig	*	*	*
2E/	-re-	1c	-re-	.	.
2F/	.	.	.	2f\	-ec-
1G	.	1B	.	2d/	-ti-
.	.	.	.	1g\	.
*	*	*Xlig	*	*	*
=23-	=23-	=23-	=23-	=23-	=23-
*	*	*lig	*	*	*
1D	-cti-	1A	-cti-	.	.
.	.	.	.	2f\	.
2E/	.	1G	.	2e/	.
1G\	-o-	.	.	2d/	.
*	*	*Xlig	*	*	*
=24-	=24-	=24-	=24-	=24-	=24-
*	*	*lig	*	*	*
*	*	*	*	*custos:f	*
.	.	1A	-o-	2c/	-o-
!	!	!	!	!LO:LB:g=original	!
2F/	-nis	.	.	2f\	.
1G	.	1B	.	1d	.
*	*	*Xlig	*	*	*
=25-	=25-	=25-	=25-	=25-	=25-
1D,	.	1A	-nis	1d	-nis
*lig	*	*	*	*	*
1E	me-	1G	.	2G/	me-
.	.	.	.	1g\	.
=26-	=26-	=26-	=26-	=26-	=26-
*	*	*lig	*	*	*
*custos:d	*	*	*	*	*
1D	.	1A	me-	.	.
.	.	.	.	2f\	.
*Xlig	*	*	*	*	*
!LO:LB:g=original	!	!	!	!	!
1d	.	1G	.	1g	.
*	*	*Xlig	*	*	*
=27-	=27-	=27-	=27-	=27-	=27-
2B\	-e	1G	-e	1d	-e
1d	di-	.	.	.	.
*	*	*lig	*	*lig	*
.	.	1F	di-	1f	di-
1c\	.	.	.	.	.
=28-	=28-	=28-	=28-	=28-	=28-
*	*	*custos:F	*	*	*
.	.	1E	.	1g	.
2B/	.	.	.	.	.
*	*	*Xlig	*	*Xlig	*
!	!	!LO:LB:g=original	!	!	!
*	*	*lig	*	*lig	*
1A	-cit	1F	-cit	1f	-cit
=29-	=29-	=29-	=29-	=29-	=29-
1G	.	1G	.	1d	.
*	*	*Xlig	*	*Xlig	*
1E	do-	1G	do-	1e	do-
=30-	=30-	=30-	=30-	=30-	=30-
*	*	*lig	*	*	*
2C/	.	1G	-mi-	1g	-mi-
1G	.	.	.	.	.
.	.	1A	.	2e/	.
1F\	-mi-	.	.	2f\	.
*	*	*Xlig	*	*	*
=31-	=31-	=31-	=31-	=31-	=31-
*	*	*	*	*custos:e	*
.	.	1c	.	2d/	.
!	!	!	!	!LO:LB:g=original	!
2E/	.	.	.	2e/	.
*	*	*lig	*	*	*
1F	.	1A	.	2c/	.
.	.	.	.	2f\	.
=32-	=32-	=32-	=32-	=32-	=32-
*lig	*	*	*	*	*
1G	.	1B	.	2d/	.
.	.	.	.	1g	.
*	*	*Xlig	*	*	*
*	*	*lig	*	*	*
1D	.	1A	-nus	.	.
.	.	.	.	2f\	.
*Xlig	*	*	*	*	*
=33-	=33-	=33-	=33-	=33-	=33-
1E	-nus	1G	.	1g	-nis
*	*	*Xlig	*	*	*
*	*	*lig	*	*	*
0D	pre-	1d	pre-	1f	pre-
=34-	=34-	=34-	=34-	=34-	=34-
.	.	1f	.	2f\	.
.	.	.	.	1d	.
*	*	*Xlig	*	*	*
*	*	*lig	*	*	*
1A	.	1e	.	.	.
.	.	.	.	2c/	.
=35-	=35-	=35-	=35-	=35-	=35-
*custos:F	*	*	*	*	*
2D/	.	1f	.	1d	.
!LO:LB:g=original	!	!	!	!	!
2F/	.	.	.	.	.
*	*	*Xlig	*	*	*
*	*	*lig	*	*	*
1E	.	1g	.	2B/	.
.	.	.	.	2c/	.
=36-	=36-	=36-	=36-	=36-	=36-
1D	.	1f	.	2A/	.
.	.	.	.	1a	.
*	*	*Xlig	*	*	*
*	*	*lig	*	*	*
1A	.	1e	.	.	.
*	*	*	*	*custos:f	*
.	.	.	.	2a\	.
!	!	!	!	!LO:LB:g=original	!
=37-	=37-	=37-	=37-	=37-	=37-
2D/	.	1d	.	2f\	.
2G/	.	.	.	2g\	-ce-
*	*	*Xlig	*	*	*
*	*	*lig	*	*	*
2F/	-ce-	1d	-ce-	2a\	.
2D/	.	.	.	1f\	.
=38-	=38-	=38-	=38-	=38-	=38-
*	*	*custos:e	*	*	*
1d	.	1f	.	.	.
.	.	.	.	1d	.
*	*	*Xlig	*	*	*
!	!	!LO:LB:g=original	!	!	!
*	*	*lig	*	*	*
1A	.	1e	.	.	.
.	.	.	.	2c/	.
=39-	=39-	=39-	=39-	=39-	=39-
2D/	.	1f	.	1d	.
2F/	.	.	.	.	.
*	*	*Xlig	*	*	*
*	*	*lig	*	*	*
1E	.	1g	.	2B/	.
.	.	.	.	2c/	.
=40-	=40-	=40-	=40-	=40-	=40-
1D	.	1f	.	2A/	.
.	.	.	.	1a	.
*	*	*Xlig	*	*	*
1A	.	1e	.	.	.
.	.	.	.	2a\	.
=41-	=41-	=41-	=41-	=41-	=41-
*	*	*lig	*	*	*
*custos:G	*	*	*	*	*
2B\	.	1d	.	2f\	.
!LO:LB:g=original	!	!	!	!	!
2G/	.	.	.	2g\	.
1A	.	1c	.	1e	.
*	*	*Xlig	*	*	*
=42-	=42-	=42-	=42-	=42-	=42-
0D	.	0f	.	0a	.
=43-	=43-	=43-	=43-	=43-	=43-
*	*	*lig	*	*	*
*	*	*	*	*custos:a	*
1E	.	1e	.	1g	.
!	!	!	!	!LO:PB:g=original	!
*lig	*	*	*	*	*
1F	.	1c	.	1a	.
*	*	*Xlig	*	*	*
=44-	=44-	=44-	=44-	=44-	=44-
*	*	*lig	*	*	*
1D	.	1d	.	1f	.
*Xlig	*	*	*	*	*
*lig	*	*	*	*	*
1A	.	1c	.	1e	.
*	*	*Xlig	*	*	*
=45-	=45-	=45-	=45-	=45-	=45-
1F	.	1A	.	2f\	.
.	.	.	.	2a\	.
*Xlig	*	*	*	*	*
*lig	*	*	*	*lig	*
1E	-dam	1c	-dam	1g	-dam
=46-	=46-	=46-	=46-	=46-	=46-
1D	.	0d	vos	1f	.
*Xlig	*	*	*	*Xlig	*
1D	vos	.	.	1f	vos
=47-	=47-	=47-	=47-	=47-	=47-
2E/	in	1G	in	2e/	in
1G	ga	.	.	2d/	gal-
.	.	1G	gal-	2e/	-li-
2F/	.	.	.	2f/	.
=48-	=48-	=48-	=48-	=48-	=48-
2E/	.	1G	-li-	0g	.
2D/	.	.	.	.	.
*	*	*lig	*	*	*
*custos:E	*	*	*	*	*
2C/	.	1G	-le-	.	.
!LO:PB:g=original	!	!	!	!	!
2E/	.	.	.	.	.
=49-	=49-	=49-	=49-	=49-	=49-
*	*	*custos:F	*	*	*
2D/	.	1A	.	2f\	.
*	*	*	*	*custos:g	*
1F	.	.	.	1a	.
*	*	*Xlig	*	*	*
!	!	!LO:PB:g=original	!	!	!
*	*	*lig	*	*	*
.	.	1F	.	.	.
!	!	!	!	!LO:LB:g=original	!
2E/	.	.	.	2g\	.
=50-	=50-	=50-	=50-	=50-	=50-
1D	.	1A	.	1f	.
*	*	*Xlig	*	*	*
*	*	*lig	*	*	*
1C	.	1c	.	1e	.
=51-	=51-	=51-	=51-	=51-	=51-
1G	.	1B	.	1d	.
*	*	*Xlig	*	*	*
*	*	*lig	*	*	*
1F	.	1A	.	1.a	.
=52-	=52-	=52-	=52-	=52-	=52-
2F/	.	1c	.	.	.
2E/	.	.	.	2g\	.
*	*	*Xlig	*	*	*
2D/	.	0d	.	2f\	.
2G/	.	.	.	1g\	.
=53-	=53-	=53-	=53-	=53-	=53-
1D	.	.	.	.	.
.	.	.	.	2f\	-le-
*custos:G	*	*custos:G	*	*custos:c	*
1G;;l	.	1G;l	-am	1g;<l	-am
==	==	==	==	==	==
*-	*-	*-	*-	*-	*-
!!!system-decoration: [(s1,s2,s3)]
!!!RDF**kern: < = below
!!!RDF**kern: l = terminal long
!!!AIN: 1 alto 1 bass 1 tenor
!!!ENC: Berenika Jozajtis
!!!END: 2022-01-12
!!!ENC: Marta Lawrence
!!!END: 2022-01-23
